gdscript/src/main/resources/icons/godot_editor/AudioStreamMicrophone.svg

<svg viewBox="0 0 16 16" xmlns="http://www.w3.org/2000/svg" xmlns:xlink="http://www.w3.org/1999/xlink"><linearGradient id="a" gradientUnits="userSpaceOnUse" x1="8" x2="8" y1="1" y2="15"><stop offset="0" stop-color="#ff5f5f"/><stop offset=".5" stop-color="#e1da5b"/><stop offset="1" stop-color="#5fff97"/></linearGradient><path d="m7 1c-1.108 0-2 .892-2 2h2v1h-2v2h2v1h-2c0 1.108.892 2 2 2v4l-2 2h6l-2-2v-4c1.108 0 2-.892 2-2h-2v-1h2v-2h-2v-1h2c0-1.108-.892-2-2-2z" fill="url(#a)"/></svg>

<svg height="16" width="16" viewBox="0 0 16 16" xmlns="http://www.w3.org/2000/svg"><linearGradient id="a" gradientUnits="userSpaceOnUse" x2="0" y1="1" y2="15"><stop offset="0" stop-color="#ff5f5f"/><stop offset=".5" stop-color="#e1da5b"/><stop offset="1" stop-color="#5fff97"/></linearGradient><path d="M7 1a2 2 0 0 0-2 2h2v1H5v2h2v1H5a2 2 0 0 0 2 2v4l-2 2h6l-2-2V9a2 2 0 0 0 2-2H9V6h2V4H9V3h2a2 2 0 0 0-2-2z" fill="url(#a)"/></svg>
